X:1
T:Temerario Fetonte
T:Gemignani Capilupi
T:Source : Canzonette a tre voci di H.Vecchi et di G.Capilupi da Modena---Venetia---Ang.Gardano---1572. Editor : André Vierendeels (01/03/17).
T:Notes : Original clefs : G2, G2, C4 m 8 in B :  "C" notated as "F" in original print Lute accompaniment not added in this edition
T:Temerario Fetonte
T:©
T:©
C:Gemignani Capilupi
Z:©
%%score [ 1 2 3 ]
L:1/8
Q:1/4=120
M:2/2
K:C
V:1 treble nm="Soprano 1" snm="S 1"
V:2 treble nm="Soprano 2" snm="S 2"
V:3 treble-8 nm="Tenor" snm="T"
V:1
"^1)" z2 ef g4 | f2 e2 d4 | d2 g2 a2 a2 | a2 a2 g4- | g2 f2 d2 c2 | d8 |[M:2/4] e4 :: %7
w: Te- me- ra-|rio Fe- ton-|te, ne l'o- sti-|nat' ar- dir|_ tropp' a se|piac-|que,|
w: Ed' io mi-|se- ro'A- man-|te, ve- do l'es-|sem- pio'e te-|* m'hor che mi|va-|le,|
[M:4/4] z4 z2 d2 | g2 f2 e2 d2 | c4 z2 e2 | g2 f2 e2 d2 | c2 c2 B2 c2- | c2 B2 c4 | g4 a4 | %14
w: on-|de dal ciel cad-|dè, on-|de dal ciel cad-|dè mo- ri ne|_ l'ac- que|mo- ri,|
w: se'l|mio stol- to pen-|sier se'l|mio stol- to pen-|sier tropp' al- to|_ sa- le?|se'l mio|
 a4 g2 f2 | e2 dc B2 c2 | d6 c2 | B4 !fermata!A4 :| %18
w: ne l'ac- *|||* que.|
w: pen- sier tropp'|al- * * * to|sa- *|* le.|
V:2
"^2)""^1)" z2 cd e4 | c2 c2 B4 | B2 d2 f2 f2 | f2 f2 e3 d | c2 c2 B2 c2- | c2 BA B4 |[M:2/4] c4 :: %7
w: Te- me- ra-|rio Fe- ton-|te, ne l'o- sti-|nat' ar- dir _|_ tropp' a se|_ piac- * *|que,|
w: Ond' ei per|l'am- pio cie-|lo, del- la vo-|stra bel- lez- za'u-|* ni- ca'e so-||la,|
[M:4/4] e4 d4 | z2 d2 g3 f | e2 d2 c4 | z4 z2 A2 | E2 F2 G2 FE | D4 E4 | e4 e4 | d4 e2 d2 | %15
w: on- de|on- de dal|ciel cad- dè|mo-|ri ne l'ac- * *|* que,|mo- ri|ne l'ac- *|
w: qua- si,|a- la- to|de- stri- er|rat-|to sen vo- * *|* la|qua- si|a- la- to|
 c2 BA G2 A2 | B6 A2- | A2 ^G2 !fermata!A4 :| %18
w: ||* * que.|
w: de- stri- * er rat-|to sen|_ vo- la.|
V:3
"^3)""^1)""^4)""^5)" c2 c2 c4 | F2 C2 G4 | G2 G2 F3 G | A2 B2 c4- | c2 F2 G2 A2 | G8 |[M:2/4] C4 :: %7
w: Te- me- ra-|rio Fe- ton-|te, ne l'o- sti-|nat' ar- dir|_ tropp' a se|piac-|que,|
w: Chi mi lu-|sin- ga'ahi las-|so, co- tan- to'A-|mor che di|_ spe- ran- za|pie-|no,|
w: Ma fe- li-|ce de- si-|re, che se ca-|der per voi|_ le fia mai|da-|to,|
[M:4/4] c4 g4- | g2 d2 e2 B2 | c8 | G4 A4 | A4 G4- | G4 C2 c2 | c2 B2 A2 G2 | F4 E4- | E4 E4 | %16
w: on- de|_ dal ciel cad-|dè,|mo- ri|ne l'ac-|* que, on-|de dal ciel cad-|dè mo-|* ri,|
w: tut- to'al|_ cie- co de-|sio|ri- las-|so'il fre-|* no, tut-|to'al cie- co de|sio ri-|* las-|
w: nel pre-|* ci- pi- tio|suo|fa- ta|be- a-|* to, nel|pre- ci- pi- tio|suo fa-|* ta|
 D4 E4- | E4 !fermata!A4 :| %18
w: ne l'ac-|* que.|
w: so'il fre-|* no|
w: be- a-|* to.|

